X: 1
T: Fiddler's Whim
R: jig
Z: 2006 John Chambers <jc:trillian.mit.edu>
B: Pinewoods Alternates
D: A.Fraser record
M: 6/8
L: 1/8
K: D
A \
| "D"F2A dcB | "D"AFA    f2e |  "D"dAF "Bm"DFA | "Em"BEE "A7"E2A \
| "D"F2A dcB | "D"AFA "G"g2f | "A7"ecA     ceg |  "D"fdd     d2 :|
|: f/g/ \
| "D"a2f b2f | "D"agf "G"g3e | "A7"c2e a2e |"A7"gfe "D"f2g \
| "D"a2f b2f | "D"agf "G"g2e | "A7"c2e gfe | "D"d2f    d2 :|
